X:193
T:B193-  The hobbyhorse
S:(2nd/2)
Q:1/4=120
L:1/4
M:6/4
K:D
F/2G/2|AAAAAA|A2FA2F/2G/2|ABAAFG|\
(A3A2)F|AAAAAA|A2FA2F/2G/2|ABAAFG|\
(A3A2)A|GBBBBA|BBdBBd|gGAA2G|\
(G3G2)d|gdgf2(e/2d/2)|edec3/2(B/2c)|dFGE2A|\
Gddddd|dddddd|dDDDDD|(D3D2)|]
